app/javascript/images/hardpoints/maneuvering_thrusters.svg

<svg fill="#428bca" stroke="#428bca" viewBox="0 0 45.89 29.54" xmlns="http://www.w3.org/2000/svg"><path d="m20.12 18.42-1 5.89-1.68.51v-3.23a4.29 4.29 0 0 0 -1.26-3l-2.84-2.84a4.29 4.29 0 0 0 -3-1.26h-3.3l.57-1.68 5.9-1a3.22 3.22 0 0 1 2.84.89l2.95 2.95a3.22 3.22 0 0 1 .82 2.77zm-15 8.28 9.55-3.84-.1 5.8-1.88-2.37-10.39 3.25 3.26-10.42-2.33-1.83 5.77-.12zm6.88-9 2.13 2.13a.64.64 0 0 1 -.23 1.05l-4.76 1.83 1.86-4.78a.64.64 0 0 1 1-.22zm14.64-2.13 2.95-2.95a3.22 3.22 0 0 1 2.84-.89l5.9 1 .57 1.68h-3.3a4.29 4.29 0 0 0 -3 1.26l-2.81 2.93a4.29 4.29 0 0 0 -1.26 3v3.23l-1.68-.51-1-5.89a3.22 3.22 0 0 1 .82-2.85zm10.21 1.59 5.78.12-2.33 1.84 3.26 10.42-10.39-3.25-1.88 2.37-.1-5.8 9.55 3.84zm-2 .76 1.84 4.77-4.69-1.8a.64.64 0 0 1 -.23-1.05l2.13-2.13a.64.64 0 0 1 1.01.22zm-16.48-12c-5.45-3.44-13.21-3.29-13.21-3.29v-2.63a32.91 32.91 0 0 0 -5.16 4.17 21 21 0 0 1 5.16 3.27v-2.67s4.6-.77 13.27 1.14zm22.35-1.15v2.67a21 21 0 0 1 5.16-3.26 32.91 32.91 0 0 0 -5.16-4.18v2.63s-7.72-.15-13.26 3.28c8.66-1.91 13.26-1.14 13.26-1.14z"/></svg>

<svg xmlns="http://www.w3.org/2000/svg" viewBox="0 0 45.89 29.54" style="fill: #428bca; stroke: #428bca">
  <path d="M20.12,18.42l-1,5.89-1.68.51,0-3.23a4.29,4.29,0,0,0-1.26-3l-2.84-2.84a4.29,4.29,0,0,0-3-1.26l-3.3,0,.57-1.68,5.9-1a3.22,3.22,0,0,1,2.84.89l2.95,2.95A3.22,3.22,0,0,1,20.12,18.42Zm-15,8.28,9.55-3.84-.1,5.8-1.88-2.37L2.3,29.54,5.56,19.12,3.23,17.29,9,17.17Zm6.88-9,2.13,2.13a.64.64,0,0,1-.23,1.05L9.14,22.71,11,17.93A.64.64,0,0,1,12,17.71Zm14.64-2.13,2.95-2.95a3.22,3.22,0,0,1,2.84-.89l5.9,1,.57,1.68-3.3,0a4.29,4.29,0,0,0-3,1.26L29.79,18.6a4.29,4.29,0,0,0-1.26,3l0,3.23-1.68-.51-1-5.89A3.22,3.22,0,0,1,26.67,15.58Zm10.21,1.59,5.78.12-2.33,1.84,3.26,10.42L33.17,26.29l-1.88,2.37-.1-5.8,9.55,3.84Zm-2,.76,1.84,4.77L32,20.89a.64.64,0,0,1-.23-1.05l2.13-2.13A.64.64,0,0,1,34.91,17.93Zm-16.48-12C12.92,2.48,5.16,2.63,5.16,2.63V0A32.91,32.91,0,0,0,0,4.17,21,21,0,0,1,5.16,7.44V4.77S9.76,4,18.43,5.91ZM40.72,4.77V7.44a21,21,0,0,1,5.16-3.26A32.91,32.91,0,0,0,40.72,0V2.63S33,2.48,27.46,5.91C36.12,4,40.72,4.77,40.72,4.77Z"></path>
</svg>
